X:300
T:
R:polska
S:Efter fanjunkaren Lindbom i Sanda.
O:Gotland, Sanda
M:3/4
L:1/16
K:D
a3af3fd3d'|Lb4 bc'd'b b2a2|f2fa g2ga f2fa|e2ef d2f2 A4|a2a2 fgfe d2d'2|
b2b2 bc'd'b a4|f2fa g2ga f2fa|agfe e4 d4::Lb4 g2gb g2gb|b2a2 f2fa f2fa|
Lb4 g2gb g2gb|b2a2 f2fa f2fa|fdef gabc' d'3f|agfe e4 d4:|

